X:219
T: ICH WEISS MIR ETWAS LIEBES AUF GOTTES WEITER WELT
N: B0262
O: Europa, Mitteleuropa, Deutschland, Rheinland, Allenbach
R: Stimmungs - Lied, Sehnsucht, Heimat, Heimweh
M: 4/4
L: 1/16
K: D
A4 | A2B2B4F4d4 | d8edc2
E2F2 | G2F2G4B2A2G4 | F8z4
A4 | A2B2B4F4d4 | d8edc2
E2F2 | G2F2G4B2A2G4 | F8z4
d4 | c4B4G2A2c2B2 | B4A4z4
A4 | G4FGBAE4G4 | F8z4
A4 | d4c4e3dcBA2 | d4B4z4
G4 | E2F2G2B2A2GFE4 | D8z4

